symbols/web/local_hospital/materialsymbolsrounded/local_hospital_wght500gradN25_40px.svg

<svg xmlns="http://www.w3.org/2000/svg" height="40" width="40"><path d="M20.042 28.292q.875 0 1.52-.646.646-.646.646-1.521v-4h3.917q.875 0 1.521-.625.646-.625.646-1.542 0-.875-.646-1.52-.646-.646-1.521-.646h-3.917v-3.917q0-.875-.646-1.521-.645-.646-1.562-.646-.875 0-1.5.646t-.625 1.521v3.917h-4q-.875 0-1.521.646-.646.645-.646 1.562 0 .875.646 1.5t1.521.625h4v4q0 .875.625 1.521.625.646 1.542.646ZM8 35.042q-1.25 0-2.146-.896-.896-.896-.896-2.146V8q0-1.25.896-2.146Q6.75 4.958 8 4.958h24q1.25 0 2.146.896.896.896.896 2.146v24q0 1.25-.896 2.146-.896.896-2.146.896ZM8 32h24V8H8v24Zm0 0V8v24Z"/></svg>

<svg xmlns="http://www.w3.org/2000/svg" height="40" width="40"><path d="M20.042 28.292Q20.917 28.292 21.562 27.646Q22.208 27 22.208 26.125V22.125H26.125Q27 22.125 27.646 21.5Q28.292 20.875 28.292 19.958Q28.292 19.083 27.646 18.438Q27 17.792 26.125 17.792H22.208V13.875Q22.208 13 21.562 12.354Q20.917 11.708 20 11.708Q19.125 11.708 18.5 12.354Q17.875 13 17.875 13.875V17.792H13.875Q13 17.792 12.354 18.438Q11.708 19.083 11.708 20Q11.708 20.875 12.354 21.5Q13 22.125 13.875 22.125H17.875V26.125Q17.875 27 18.5 27.646Q19.125 28.292 20.042 28.292ZM8 35.042Q6.75 35.042 5.854 34.146Q4.958 33.25 4.958 32V8Q4.958 6.75 5.854 5.854Q6.75 4.958 8 4.958H32Q33.25 4.958 34.146 5.854Q35.042 6.75 35.042 8V32Q35.042 33.25 34.146 34.146Q33.25 35.042 32 35.042ZM8 32H32Q32 32 32 32Q32 32 32 32V8Q32 8 32 8Q32 8 32 8H8Q8 8 8 8Q8 8 8 8V32Q8 32 8 32Q8 32 8 32ZM8 32Q8 32 8 32Q8 32 8 32V8Q8 8 8 8Q8 8 8 8Q8 8 8 8Q8 8 8 8V32Q8 32 8 32Q8 32 8 32Z"/></svg>
